src/Icon/svgs/crop.svg

<svg width="24" height="24" viewBox="0 0 24 24" fill="none" xmlns="http://www.w3.org/2000/svg">
<path d="M8 3C8 2.44772 7.55228 2 7 2C6.44772 2 6 2.44772 6 3V6H3C2.44772 6 2 6.44772 2 7C2 7.55228 2.44772 8 3 8H6V17C6 17.5523 6.44772 18 7 18H21C21.5523 18 22 17.5523 22 17C22 16.4477 21.5523 16 21 16H18V7C18 6.44772 17.5523 6 17 6H9V8H16V16H8V3Z" fill="#1B1C1D"/>
<path d="M17 22C17.5523 22 18 21.5523 18 21V19H16V21C16 21.5523 16.4477 22 17 22Z" fill="#1B1C1D"/>
</svg>

<svg xmlns="http://www.w3.org/2000/svg" width="24" height="24" fill="#1b1c1d"  xmlns:v="https://vecta.io/nano"><path d="M8 3a1 1 0 1 0-2 0v3H3a1 1 0 1 0 0 2h3v9a1 1 0 0 0 1 1h14a1 1 0 1 0 0-2h-3V7a1 1 0 0 0-1-1H9v2h7v8H8V3zm9 19a1 1 0 0 0 1-1v-2h-2v2a1 1 0 0 0 1 1z"/></svg>
